!!!COM:	Pierre de la Rue
**kern	**kern
*part2	*part1
*staff2	*staff1
*clefGv2	*clefG2
*k[]	*k[]
*M2/1	*M2/1
=1-	=1-
0r	1g
.	2e
.	[2f
=2	=2
0r	4f]
.	4e
.	4d
.	4c
.	1d
=3	=3
1e	1c
2c	2r
[2d	2f
=4	=4
2d]	2g
4c	2.a
4B	.
1A	.
.	4b
.	2cc
=5	=5
1G	2.b
.	4g
2r	2a
2c	2g
=6	=6
2d	2r
1e	2b
.	2cc
2f	[2dd
=7	=7
2d	2dd]
1e	2b
.	2cc
2f	[2dd
=8	=8
2d	2dd]
1e	4cc
.	4b
.	4cc
.	4b
4d	[2dd
4c	.
=9	=9
4d	2dd]
4c	.
2e	1cc
1d	.
.	2b
=10	=10
1c	2cc
.	4b
.	4a
2r	1g
2c	.
=11	=11
2d	2r
2e	2g
2f	2a
2d	[2b
=12	=12
1e	2b]
.	2g
2f	2a
2d	[2b
=13	=13
2e	2b]
2.f	4a
.	4g
.	4a
4e	4g
4d	[2b
4c	.
=14	=14
4d	4b]
4c	4a
4B	1a
4A	.
1B	.
.	2g
=15	=15
[0A	2a
.	2.cc
.	4b
.	4a
.	4g
=16	=16
0A]	2a
.	4g
.	4f
.	2e
.	2A
=17	=17
2r	2r
2e	2cc
2f	2dd
4e	4cc
4d	4b
=18	=18
2c	2a
2.d	1b
4c	.
4B	2a
4A	.
=19	=19
1G	2b
.	2.dd
2r	.
.	4cc
2d	4b
.	4a
=20	=20
2e	2g
4d	4f
4c	4e
4B	2d
4A	.
[2d	2f
=21	=21
2d]	1e
2c	.
2d	2d
2c	2a
=22	=22
2d	2b
4c	4a
4B	4g
2A	4f
.	4g
2c	4a
.	4b
=23	=23
2d	2a
4c	2.g
4B	.
4A	.
4G	4f
2A	2f
=24	=24
0G	0g
==	==
*-	*-
